/* XPM */
static char *andesite_64x64_xpm[] = {
"64 64 8 1",
"a c #777777",
"b c #707070",
"c c #818181",
"d c #696969",
"e c #888888",
"f c #626262",
"g c #7B7B7B",
"h c #727272",
"aacggcgbdddagagggggcgabgggbabdgccecdgadbaggagbggeecgggaabddbbbag",
"caacgcgaabaggdagccgacabaaaaabdagcegabdddcaagabbeecggagaaddbdddbe",
"gdaaabbbbggbbddbgagcgdfbbbgababgacgdfddbaaaccdaaccaccdggbbabaaac",
"fddbgddbgagafdbabgccabfbdbdbbbcgagagaddbcgaacadbaagdbbbbaaagabaa",
"afbaabdgaagbbdabagcabbbdaadddaggbbagaabacgggbdbaagaafbddbbgaabda",
"bcaagdabgcagbaagbgagagaggadbdgabbdggaagabdbddbabaagdbdaagagcggaa",
"ggcgbbdbgdgagabdbdgbegccbaadddcebbdbggagcadddaaaaabbaggcgggggggb",
"ggagcfaadbbggabadabecccabaddabgacbaabbaaccbadaabaaacaggbgbaagaba",
"aagccgbaadadaaagbbcggggdfdagbbdaagddbdaacagagadaeggbgggaacbggbdg",
"bbacabbgaaaddaggaaccgggdddaccbdfgaabdbdabbbaabbabbaabagagggggbdb",
"fdbacgabgccdddgegbbgcegabbgeeadagbbbbaabagbbggadfdbbbabaababbbdb",
"bbagacgagegbddggcabggcegbbgggadacgbbaccbaabbgaabfddbbbddbababagb",
"bggagaggcccbbbgbacaadgabgcaaaggcgggagccbbabgaeggbdbabbbbeaaaaaaa",
"acgggaaccegabbgbagcegbaagcgaagccagcaggdbaaagageaggbaadbgccabbbba",
"agaggaaacgcbbaddbcaeggcggcgbageeccagbabbbbbabaecggcdbbccccagadda",
"caacgbbbbaggbaafagabaaceabaagaacgcgcdbfdbgagbaccacabbabgcgbacbdg",
"aaggbdbaddabggabagddddggcaggabgccccacagabgcgagecabcgaaabeccgcaac",
"gaaggbbabagcgagbabgbbbagaggcbbaggcecagaaggccgaaeccadbagaaceeecga",
"ggccaaaagacgaagaaaacgbagbbagbdbdbgbgbdgcagcgcagecgbbddbececegcbg",
"agcggbagadgaaagaaaccacaggdgabbdbaaadbbdaagbaagcecgabbbbageeeccbb",
"bbcgddcaaaababaccaaecbagcegagaaabbadbbddbbdbabceggcgbdbccceeecgb",
"dgcgdaaccgadddaagbdbaadbecbgaaagabaabddbbbdabbaabcccddbggbgacagg",
"aaagbacgaabdddbbdbaaabdbdcgaabdcaaaagbdddaabgdbdbacgabbgbbgbbgcg",
"cgaddaaaddabdbbbbbbaaaafagacbddagagdbabfdgcgaadbdegggabagaaadgee",
"egabdgcgbbabdbgbbaaagagggaggadbbbbbbaaabdagbabaacagagbbdagaaabae",
"cabbaggcbbgaabbgagcaaaebaaagbaabaadbccgdagbadaaccgabbgbfdbabcaae",
"gbbaagebbddbbggabggagcagbbbgabdababgcgaabagdbaaggaagbbbdbaadagbg",
"gcgbaababbbbdcgabgeabbgabbagaadbadbcebdbgaaaddcgcbbagaaaababaggb",
"ccgabbabaabaggcccccgdbabbbcgcgcggaaeggbbabgabddcacbbcgdgggabgbbb",
"ggdbbbcabaagabccgagbddaabbbccacecaagcaaeaabbdaaaacacaabbabbgabda",
"aabbdagaabagbdbaabbaababbbbaggaggaagaagecbbbbaggabadbddbdbccegba",
"bbcbdbaabbbdaabababbbgeaddddacgaaaaabfgaadggcaagcgdbfbgdbggeggga",
"bbbbbbabbbaddgcggagaagcbbdfdbagccgagbadgddbceggegagddgcgdggaaabc",
"dbbbdagaaagabgggabbbaabgdddbabagcgccgbgbbdbccggcgggdgggggbaggage",
"agaabbaeggggcacadbaabdbddbbbaaaaaaaadaagbggcbagaagabgdgcgaaagbeb",
"ggggagcccegggccbddbaggdddbabgaabaaadabagaggbcagababgbcaaagbabcac",
"gbgcccceeeeagecgddddcabadbaagbdgaaggaacaggagacgabadcgdaagaaaagcb",
"abacggcccecabggggbdaaaabbdagbagadgaggabbaaabbggaadbdadgaaaagcaee",
"gagbgbggaaaaddbaabacgabggaabaacadbbbaaagdaadbgcaffdddbdaaadaccge",
"ggcgbbaabbbabdadddabaaabcgbbaabdbbaabddbdbaffacabfbdaaaaagabgbcc",
"geggaagdbddbgbdbbaaadggggbbbaabbbaggcbbadbbffaaccadaaaagcabcgggg",
"aceegaagaddabdbbaagaabcgacaaabgbdbaabbbbbbdddbgecagbbbbgaaaabgcg",
"gacgaabadbfaddfagababbacccaabdaaadbfddffbdddbgecccbabdbbbbbaggaa",
"gbdaabbaadgaadgaaddbgbagcgaadaaaagbddbdbbaaagabcabaabbbbbbaacgcg",
"aaadddbbbagcbbdadabagbbaccgabbeagdbdbdbgaaaabbbdbdbabaaababaggag",
"bagfddabbggceabdebccggddbgcgbcagabdaabadaagaaabbdfdaaabgaagaacbb",
"bbbcddaaagbgggbagcgccgaddbaccaggcdbggbbabaagcabddffdabbaagggaaab",
"gbcgabbgcabbabbdddagcgcgbfacaggcbaaaabaaabccgaabdddgcbdbbgaaagba",
"gbbabggcgaabbbbdbbbaacgcabbcgbcaabagdbabbggaggaggaggabbgbgcdbggg",
"gbddbbccgbgcbabbbgabbaeaaaacagaaaaadagaaggccgccagaacgaabgagabgab",
"bbgdbaggcbbabbaaacbdbccgabbaagggacbcagaccgceabaagddbcababbgccbba",
"baagbgaacgdbaaaccgbfbgeccabbbabbabgcgbggagaccbdgdddcgcbbbdacabab",
"gaabeceeaaaacaggggabdagggadfdbdbbabdgcggabggbabbbdacegaaabbabbaa",
"cggggeeggabcbabbggcdbbbdaddbdbabaaabcececccagbbabaaaggaggagabbab",
"acabcccggaaagbacgggabddbbdbegabaacgabcececaabbabbbbacbaeggbaggab",
"baabbgacgaaaabgbgcbcaaddaacgcggagcbdbbcceebadbddaddaeacggaabagad",
"dbdadagagbbbadbdacgbacbbagcgcaagagabbbgcgbbaagaaaafaceaggbaabbgb",
"aaaddbaabbbddabdgcccgaaagcgbggbgcaggbaagbbgccggggbadcageaaaacaaa",
"acgbbbagbbbdbcggcgcgagcgggbdbaggbaaaabgaacccccbgbgaaaeeeegbagcga",
"aacabaccaggbgegagcggabgaggbbbaababgaagaeaaceegbbbadbgeeegggbbcge",
"agaaacaaegggceggcbgabaagbaababdbbagggaeecdaegaddgadddgagbcegaaca",
"aagaaaabccgggcacaaaacbccgbbaggbbbaggbgggbbbaabaaggadbbbbagcccaca",
"bgadbbbaaaaaaacabdbaacecgggaecgbbbbbbabbbdddbbcgcgggbbbdbbgcaggb",
"bbbgabcbbdddbcccbdaagcceggacgeagaabbbabbbcdabbacceegagabbdacbbcg"
};
