/* XPM */
static char *diorite_64x64_xpm[] = {
"64 64 8 1",
"a c #C7C7C7",
"b c #BEBEBE",
"c c #D0D0D0",
"d c #B4B4B4",
"e c #D8D8D8",
"f c #AAAAAA",
"g c #C2C2C2",
"h c #CBCBCB",
"gabgdaabgaabbbbbfbaghgadabbbabdgbabaggaaaaabgbdbddbacaffcgbdbaaa",
"adaaafbbagbbdddbbbabgadggdfaafffddagccbaabbaaaadbgabdbafbgggagba",
"bbagabcgabbabbaagaagabaabbddfffffacccbbdabbbabagaggabdddbcggcbgb",
"acgabbbcabgggbaagaggcbdagdddafffgggcggabbgadbabbdagggbbbbdccccgd",
"ghgbgbabgaabagdgacgagbgggababadabbbccgaaagdffdaddbaaacggaagaghdb",
"dchcgggggcgaaaaagggaaaaagabbbdabdbagagaaagafddbbaabaabaccaagbbcd",
"ffcgabbaadbcagccggghgbabbafbaddbghgbbagagaaaadbccaadagaaaabbbdab",
"facgbadgdddgcghecfagagadafdbabdbbecgagagabbggagchaadbbbbabbfbfba",
"agagabgaaagcchcaddfbgabbbadagadbbhcacgbbaggbbabdbagaddddgadddgab",
"babaabchaaagggcdddddbdaacaagcabaababaabdaccgggbdaabbgdbgaddbghcd",
"adagaacgaaagaagbdbaaaafacbbababbabdacaadbagcggbgabgggabbabdacadd",
"agaggccabbgaabbaffdacfdbbabbbdbdgabacgbadbaghbbbbaabaacaadbbdagf",
"gbacgcgabdcaabdddbaafddbbbbbabdaagadabcabbghababadcgggacaaddfdcc",
"aaabbbbbacbabaadbagabfdbabbgcddbgbbbbbagaggbdfdbaccbbabgabdddbbb",
"daagbdfbcafbbabaaccbbadabbbcdbbgagdbdbgabgaadbbacchgbbgggbdaabfb",
"gagdfbbaagbdbaabahgadbdagbagcddbgbaaaaaaaabbabbgegggbdbaadbdadfd",
"agaffdgabbabbgdagggdbfbdagcgbgfbbdaagaaagbgaaaghghgddbddagadaada",
"ggfbfbfagbbbbdggagbbdadabcggabggfbagggbgafdbggccccabbbadbagcggcg",
"ggbfdddaabagagacgagbabccchaagaaddfdgagagdffbbggagbaaabbdfgggggcg",
"agbgfbaddbgaabacgcgaacaccecgcacgagbgabgadfbdbddbabdaggbddbcggggg",
"accgcbdfabgggdaagcggggggagacagacgcaabbgffffdbdfffdabcgdbfhgccgaa",
"acccaddhccagdbbgbagcgggabbgagdggaagbbafffdffdddfdabggddfadachhab",
"aahggddbaabbddbdaggagcaababffadddbabbaafddfdaaddbbdabbddbabagccg",
"gaaggabbabcbbddacgggcgbbadddffbdcadbddabbdaddbaagaabbbbafddfagga",
"aaaabaacaabcgbdbabbggaaaacbdfgdggacadbbcggadabagcgbabbadffafdaba",
"bbbbbbgabbaagdddbaabcagccagaccggcchgaacggcccbbabaaabdbgbfcbddaba",
"fdddbbbdddaagbbdbbacbdbcccaaggcaggccgaacaaggcaababcaaabcggggbbab",
"addfdggddbadgababdgabgggcgaaacaafadbgggcgabacaagbaggbacaaagggaba",
"bbbdggcafdddbbaadbbgadaaacgagbafdfdbbccgacaabdgbddcabaaaaagccggd",
"baaabbadddbbbabbbdaaaagaagecbadddddbagbacbagadgbbbagbdbbgcggccbf",
"bbabdbbadbbabbaddadgabagacccgabdbdggaaabagcabfdbdhcgbdfbgaaggbfd",
"baggagbbacgcacgdadggabaaccgcggaadcggdbbbaccdbbfdaagbbdfbgaabcaff",
"bbbadaggahhagabbbgbagghgcechcggbggadbgabacgaddddbagbbdgbfdgcdddf",
"baadbgabaagagddbabbahhccgchhgcacgafdacgafagaaddgdbagcbdddbabdfdd",
"dgbdaaadagdggabdaddggchcbggaaabbbdddbggdddaabaaaagggabdbgbdbddfd",
"bdbbdgbagbddacbbbdbagagaggaaggbaddbddabbdgbbcbggcacabdbbgbbdbddd",
"ddbagbbagadbddbbdddbgafabbgabgagadbfbdddagagggbcggggddddbbfdabbb",
"gadgggggbbbbddbdbbddbffdbabaabaaaafffbbbagagadgcgaaadbbbgbbdbgga",
"cggaababaadbdabbdbbabffbgbbbbagcbadfacgaabbbbdbgbdbaaabggadgggga",
"gcgaaddagdaagadagabbaabbdadbabadbbdbaabbgbbaabaaaddgadbaabagabab",
"agaaabaggadbgabahadddbdbbbdfdbbdagbagfdaagggcacadbaabdbaggggbaad",
"bgabcgbccdbddabhcdddddfbbbbdbgbabdaagaagaggggcgbagcbbgbbbagabbbb",
"agdggggagafbbccgcbfddggbdbddbaabaddbbaccabcccaacgccbaagagbbdfabb",
"abddcgaabbfdaggggggfggaabbdfbgbabadbdgccbdgcggcabcgggagdagbffbab",
"cadcagbbacbbagabbgagaabggaabbbfbdabbaaabbaagagaabbaghgdagaadfbac",
"caabaabchhabaabacdbggccgbbbgbddfdbddabbfddgababbbbbggcbaaddbdfgg",
"hadabbahhgabgagggaaaghhcabbaaaffdgdfabbaddagbdbdbbbbcacagbdbddac",
"ecdbbbbgchgabaggcgcaaghbbbbbagdbbfgbgcabgbgaaddgaaggcgbgaaaaaggh",
"cbbabdcgchcdaagcchcgacgabaaaggccabdaddabaggfbbbgbacgbgabaaggcgch",
"dbgabcbcaaabdbagechgaahbbgggbacaabbdfdfbbaaababbbgcgagabbccabcgg",
"fbdfdbgbggbgbbbacchcbbbgdaabbbdfddbfddbddbbbggaccdggbaadbagccbaa",
"bbbbfaaagcbaggfbaaabdaagdbgdbbddfafdfbbaddddbbacaccabdabdbgccaaa",
"acgadaaacacbcggdbbabaggbddabaaabgdfdafaagbfbddgbgbabbdbagggggbdb",
"aggbafaggccaagadabbcccdfdddcadggabfdfbaagaaagbdddbbgabbabaagadff",
"dcbgbffdagbadbdbdbabgggdffggcacgbddfdaaabgcgbabfdbbaagadbbbadfdf",
"cgaagdabaabdbbaagbdbbabafbgcchcgaabdddgcgabbggaddddbgggbbbgdabdd",
"gbaabaggfddbddchaaabbbbdbbagcecgaaabfddggddagabaadbbdbaddaabdbda",
"gaabdgcdffddbccgabbgabdgcgabggccaaagdddggcggaaggagadcgbdbaaadbaa",
"gcbdbgcafddadaabadbaddddggbbaggcabbbcdgcgaggadbdgaaaaagabbbbdbac",
"ggddaabdabgggabbgbdbdbddbabddacaagacaggccabbabbbdbabbaagbbbdbbba",
"abbdbgbgbgaccbdaaagbaccabbdbbbgaagccbaagacaagaabbbbbbagagadbbgcg",
"adbdbacgbggagabaabaabgchabbabaccgccabdbgagaacgaadaabbbbbbaaaddcc",
"gbbgdfgabggaaaaabbdggbbhabagggcgdghcaagbggggcagbabbbdbddddabaagg",
"gggddgaadbgdbgbbdbbaggagcdaaaaaaggcbaabagbbgbagbbdfbaddbgbddcdbg"
};
