/* XPM */
static char *magma_block_64x64_xpm[] = {
"64 64 8 1",
"a c #211515",
"b c #321919",
"c c #4A1F17",
"d c #642619",
"e c #8C3217",
"f c #B94716",
"g c #E06418",
"h c #F58A20",
"dccccbccchgccccccdcddcdcccbdcccddddccbbcccbccccccdbccccccccdbbed",
"dbccbbddcchdbcccfbcccdebcccccbcdcddcbcbcbcccfcfbdbccbacccbcccbbc",
"cccccdddcdcccghghbfccdcccccbccbddccbcbccccddcbcdccbbbccccbbbcbbc",
"cdcccccbddbbgcghfghccdccbccccccbcdcbccccccccccccbcebcccccbbbbccc",
"ccbccccccbbcfgghghhccccccbccbccccbcbdcccbfgdccccdcccccdcbcccdccd",
"bbccbccbbcccccbbcgcccddcccbcbbcccccccccbccffdccccccdccdcccbdbbcb",
"bccbbbcbbcccdbcbhhcccccbbcdcccecccdcdccccfgbcdggbccccccbcbccbbcb",
"bccbccbbbbdcccbhffdccccccbceccccdcccbcbcccggcfcfdbccccccbccccbcc",
"bcdccccbcbbcccchhgcdbdbbbcccdcchddbbbbddccgchbcggdbeedcccbcdcbcc",
"bcdcccccbcbcbbcfbbccdcccbcdddcchgbccbccccbccbcbddcdcbcbccacdbbbb",
"ccdccdccbbcccccccccccddcbddcccchfhcbccccccccbbccccdcccbcccbbbbcc",
"bccdcdcccbbccccdfhcccdccbcbcccbbghgcccccdcbdccccccdcbcccccccbccd",
"ccdcdddcbbcbcccchfbcbccccbbbcccdbcccccccccccdcbcbcccchfbcccccbcc",
"ccddccccbdccbcccgcbccbccccbdcacdcdcbccbccgdcccccdcccghhcccccccbb",
"bcdcdbcccccdcbbghccccbccccccfbbccddccbbbhcccdcdccccdcgddcccdcbbd",
"ccdccbbdccccdccbcfcbcccddccccbbbccdcccbcfgcbdddcccdcccccbcccccbc",
"cbcccbbbccbbccccbbcchdccddcccccbbcccccccccgccccdccccccceccccdcdb",
"cccccbcbccbcbcdcbcbbgcccbdddccbbbbbccccccabbdcccbbcccdccccdcddcc",
"ccccbcdbbcbcbbccdbchbbccccdddcbbbbbbbcdbcbcdcdccbccbcfbccdebcddd",
"dccccccbbbcbcbbccdccfcccbbcdccbbbbfbdccdccccccccbcccabbbccbcbcdd",
"dccbcccaccccbbcccdchfhcdbaccbcdccbcccddcbdccccbbccdccbcbbcccdccc",
"ccecddcdbbccccbcccccdhcbccccbbcdccddccdccccbbbbbcedfcbbbcddgddcb",
"bcbccbccccccdcebbeccdddcccccabbcdcdccbcdcdccbcbcbccdcbbbbfhfddff",
"cddcccbcccddccccbbcdccbcccdebbcccccbbccddccccccccccbbbabbggeddgh",
"ccccccfccbdccbccdccccccccccbbcbcbbcdcbdcdccecghccccfbbcchbgcgdfh",
"hcbcbccbbbcccccbccdbbdcdcddbbbbcbbdccccfhcccdggdcbbhcghgbeccgcff",
"cbcbcbbcccbcdcccbcdcddcccccbccbccbbcbbchfabcchcbhggccgghcccfcgcg",
"cccbbbbchbbggcccccbbbcbcccccbccbbcaceccbhbbchfcchccbcchcdcccchhb",
"fcdcbbdchhhgheccccbccccbcdccdceccbcbecdchhcbdcbhcccccbbccccccgfc",
"cebbccccchfgcccbccbbbbbbccccddcecccdccccfccccccbcccdccchgcgdbggd",
"ccdbcccdcdcdcccaccdcbbbcecddcccfcccccccdgcdccdcccbbcccchghcdccgb",
"cccdbcccdddcccbccddcababccccccccdcccdeddcgccbcccccecccchghcccccb",
"bcbbcccfccccdbccddccbacbcdccccccacdfcbbcchcbccccddcccbachbbbcccd",
"cccdebccccbdcccccdcccbccecccccccccccccbbhcbbbcbcdcccdbbbccbbbccc",
"ccdcbccddbbccdcccdccddccbccccdbdcccbcccbbbcbbbbbhfbcdcbccccbcbcc",
"dcccddebcbbbccccfcbccccccbccbbdcdbbbccbcbcbabccfhhbcccccbccccdcc",
"cbcfcccbbdcbcbbedbcbbcbbdcccccdccccccbbbbbbgbccbchbbcccccbcdcccc",
"bcdccccccddcbbbccbccccccccccdcceccccbcbbcdhbebccchbcbccdbccccddc",
"cdcccdccdddbabcbcfbcccccbcdccccbbbcbccccddhfbcbcbbcbcccccccbcdcc",
"cccbbddcdbcbbccdcgbccbcccccbcccbbfcbbbccdhhhbcbcbbbfccccccbccccc",
"bcbcdcbddcccbcbbcghcbbcccccccdbbccfbccdccccbgcbbbcbccccccccccccc",
"bcccccbccdccccbbcbhccccbcccbbdcacccccdddcccbccccccccccdccddcbbbc",
"dcbbcdcccddccbbdcbbccccbccbbccccccbcccccdbcbbccddcdcdcccddcccbcc",
"ccccccccccdcbccbcccbbbcdbbbccdccbcbcceccbbccbccdccccbbbcdcccbccc",
"ccccccccdcccccccccdcccccbbbccccccbbbcccccccebcbbcbbcbcbbccbccbbc",
"ccfcchggbcdddcccccdccdbcbbccchcccccbccbbcccbcbbabccebccccgccbccc",
"cccccchghccddccccddcccccbcccghdbdccbbcbbbbbccbcbbccddccfchfccccc",
"dcccccbgggfcccccdbccccccbcccghccbcccccbccbbcdcdccccccccghhhcfdgh",
"ccbcccchbcggcccdccccccccdcccgcdccdcbbcdbccccdddcbdccccgfhfdbhghh",
"babbccbbbcdfgccccbcccccfcdbccceddccbbccbbcfchcdcccdcddcbcccbchgh",
"fbbcbbccbbddbcccbcccccccccdcdccbdbccbbbdchhchcdbcccdccccbbbbcgbg",
"hccbbcceccdccbcbbcccbcdbcbfccdcbcccccbccchbhbcccbcccccdccccbbcbf",
"ccbacdcdddccbcccbcbcbbccbdccccccbbccbcbddgdbcccbbccccecccccbcbcb",
"bccccdcddbccddbbbbbbbbgeccdccccbcccccbccddcccccbcccccbcccbbccdcc",
"cccccdccccdcedbebbcgbgbgcccccbdcbddcccbcdcbdbbbbcccccbcccccbcccc",
"cccbbbccccdccdfbbbbcgfccbbccccbbgcccccccbbcbecbcccccccccccbcbcbd",
"bcbbbbcbbccccccbbbcbdccbbbccbcchgfccccbfccbcccdcbbccccddccbccbcc",
"bbcbbccbbcdbccbbcdccdccbbbcbbdccghhcdcbbcddcccccccccdccccdddcccb",
"bcbcccdcbcccdcbbcdcdccdcbeccbbcccccccbbbcddcbccbcbddcbcccccbccbc",
"caacddcecceccccbbccdbdccbccccccccccccbbcccdbbbcbccbdbbcgcccbccbb",
"cbbbccccdbbcbbdccccbcccbbcccccdccdccbccbbdccbdbcbccbcccghccbbbcc",
"cdcbbccbbcccbbccdccccccccccdbddccccbcccbbccccbcccbccccdghgcccccd",
"dbebbcbbccccbccccccccbccccdddccccccccccbbccccccbcbdcccbghgcdbcdc",
"cccbbcccchcdcbecccccdcbcccbcccccddccccbccbccbbbccbccdecbhddccbbc"
};
