/* XPM */
static char *minecraft_sand[] = {
"64 64 7 1",
"A c #D8C07A",
"B c #DCC681",
"C c #D2B970",
"D c #E1CA87",
"E c #C9AE65",
"F c #E5CE8B",
"G c #BEA25D",
"AADABDBCABCDBACAAAABAAADAABDAAACAACAACACEAAAADBAAAEAABAACADAABAE",
"AFBAADACAABACAAAAECACAAAAEDAABAAABCAAEABCAABADCCCAABBDBADABDAAAC",
"EAAABBBAAAEAAAAAAEABDBAAAAAAAADAACAADDCCABBAAABAADECEAABABCAAAAB",
"BBCDBAAACFECAAAACAACACAAAADABABAAACAACAAAAAAABCAACAAADBABADBADAA",
"ABAAFADAAAADAEAABABAABDABBAAAABACBACAFBAACAABABDAADAFAACAABAAAAA",
"BACABDADAAABBBFCBABABEAEBGAAAAAGBAAAFBDBFAADDCCCAABBCADAAAAAAABA",
"AEBBABADACAAAAAAFAAABAAAABCBBFAABBAAABDABAAABAACABACABAABAAADEAA",
"AAADAACBAAAAAADABAAADABDAFCAAAACABAAACAFBDAECAACAAAFAAAAAABAAABA",
"ABAAACAAACABACAAAABEAAAAAECBEDAAEABBADAAADAAACACAABAAFEBDAAAAAAB",
"FAAABACAAAAADEAAAACAAAABAAAABBACABAAACCAABBGAAAAEBBDBDAAAAAAADEA",
"FAABBABABGCCACDABFCAAAAAADAABAAAAABABAFAAAAAAABAADAFACABAAAAACAE",
"AABBBAACDAAAACADAAAABAAAAEBFAAAABAAAAABEABDAAABAAAAABACBAADDAAAA",
"BACBCBDCBCEAAAAADCAACBBAAAAACAAAAAABABCFABBABAAAAABADAAAADEDAAAA",
"BAAACABABAAADAADBAAAAAABBAABADBABABBEAADACABBBEADAAAAAACCAAEBEAD",
"ADADBABAAAAABAEAAACACAAACAAAEAAEBBACACBCAACBAACACAAAACBACAAAAAAA",
"ABADBACCAAAAEAAAAEAFAAADAABABBACAAAAADAABAAAACBCAEABACAAAAABABAA",
"AADAAEAAECABAAAADBDDABBBBAACABCAACADCDABBAAABFEABDABAAAAAAABABCA",
"BEAAAAAACAABBBEAABBAABBBAAACAAAABABADBABBAABCAAAAECCBABAEDABAABE",
"DAFAAAAAEAAFBEAEAAAAACBBAAAABAABAABAEDAACAAAAAACABACACAAAACABCAB",
"AADAAAABCAAAAAAACAAADCBABEACAACACAGAAAACAAAEAAACAAACCAAEBAAAAAAA",
"BAAACABAAAADACAAAAAAADCDDAAADAAAAACDAAABEAAAACBAAAABBFBDABAAAAAA",
"BAAAAAAEDCABCDAAABBBEAAACABACABBABCDBAABAAAAAAADACACAAAAAFABAAAA",
"DADBAAEAAAABDAAAEAAAADBBAAAADBCAABDCCADCAAADAADABCAAFDAAABBAAAAE",
"AAABABCDFBCAAAAADAAAAAADABAACFAAAAAABBBABAEABACAADCGGDCAAAEAAABA",
"BAAACBCAAACAAAABABEDAAAAEABBDEAAEABBAABAACAAAAADFBAAABAAABAAACAD",
"DAAAAECAGAFCEAACAACCAAAEAAAAABACAEFBAAAACDABAEACAACACBAAAAAAAABA",
"AEDCCAAGAADAAACCBBAAAABABCBAADCAAAABABGCDABFCDAAAAACAAABDCADAAAE",
"BDDAABAAGAAAABABABAAAAACAAAAAAEFAADCDAADAABADEAAAAAFAAAAAEADADDD",
"AACAAABACABABDAAAAAAEBBAADEDCABAAAACABAAAAEBABAEAADABABAAACAACCA",
"CAAAABBCAAAABDDFABCAEBCACAEAADBBAABBAAAAAAAAACDAADCEAABAAACBAAAA",
"AAAECABDCAECADADABBADFAADAACFDAEADAAADAABAAAAAAABCBCBCEAABBDCBAA",
"DAAAABCAAAAAAABAABCAAAAACCADCADAAACCAAAADAACCEBACBBDAAEAABACAADA",
"AAAAACABBABADCAAAAAAACCDCABBCCAAAEEAABAABACADAACADBBACBAAAAAADAD",
"AAAABAAAAAEAABADCBAAEAADDAAAFAACCAAAABACAACABABAAGACAAAABAAAABAB",
"AAAADBACAAAACAAFBADAACAAAGBBDABGCAAABABCAABAGAAABAACAAACBAAEADEA",
"ADGABACCDABAACDBCAAAAAADAGAAACAAACCAACAAEBAAAAABBEDFCAGBAAACBFAA",
"CDAAACACAACBAABBAADCACCAAEBBAACAACAEAAAABAAAAAAACBCCAAAAABBCABDC",
"CFACABCAAAABAABAACAAAAAEAAECAAEAAEABACABBBACAAACAAAAABCAAAADBAAB",
"AABAABAAADAFADAEADCACCBDACAABBBDBAAAFAADCBACDACAAAABAACAABABAAAC",
"BDCABAAAAABAABEACBABABCCABABBAAAFAABAAAAABADACCBAAECADDABABABCCD",
"BABCACABCAACAAABABAAAAAADABFAAAAAABAABDBACDBABBACCADAABAABACAACB",
"CABEAADDABAEDCAAAABAAAAAACCABCCAAAGAAAADAEABAACDADAGACAABACAFAAA",
"AAABAFDAABAAABCAAAECAACBAACAAAECDABDDAAACCCCBBDAAAAABABABAACAAAB",
"AAAACABABAADAADABACAABBBAAAAAABACAAAABBAACCAAEGBAACBAAAEAAACAACD",
"ACEEADCAAAABADCBAEAAAAAAAAAABEAAADACBABACAAAAADAAACACBAABAABAABA",
"ABCBAAAAACACBDEACBABAAAAABABDACAAAAEAAAAAAABAAABCBAAAEAACCAABAAC",
"ACAAAAAAEAABBBAAAECAEBAEDAACAEACCAAAAAAAABCACCADBACAAEAABAAAACAB",
"DAAAACABACBABCBAACABAAEAACAAAAACAAEEBAABABAAAAABAAFAACBADBABEAAA",
"CAAAFABAABBAABEACAAACACAAAABAAAAAAADBABBCABDBAACABABCABACAAAABAC",
"AAABAABCAEAAACAAACABBAAABABAABAAAAEACAAAAAADBDACEAABAAACBBAEAADD",
"ABAAADABDBDDADAEDABACACCAAAAABAFDACBAABBGAACACABDCAAAABAGADGAAAD",
"ACCAAAACAAAADCAAAEABAAADCAAADAABBDDBABAACCAAAACACBAABCGAACAACADA",
"AEDAAAAAFBBACACAAACACCABBCAACBAAGBAEAEAACAAAAAAADAADDABACDABACCA",
"CADACACADCBADBCDACABDCAACAACACBABACABBAACACAAAAAAAABAADAAAAADECA",
"ACAAABAAAABBBABAAAAACBACDBAAAACAABAAAAAAADAAACADAAABABABACAAAAAB",
"BAADCBACAAABBECACEABACABDBBADAAEDAAABADAECDBBFDABAAACAAEABAAABAA",
"ACAEAAAAACAAAAEAAABABAAABACAAACAAABDDACAACADAADEABBAAABAABABEACB",
"BADCAAABABECBAABAEAAAAAAAAAAADFBACAAAAAAAACAAABCADAAAAEDADABCDDA",
"BCCAAAABABGBAAACADBBDABAAABDAEABABCEDAEBBADAAABCCAAECAAAABAAADCF",
"ABABABBAAAAABBACABCAAAAECFABAAAAABABAABDAAABAABAAAAACADABAAACBAC",
"ADBAAAAACAAAAAAAFBACGCCBAEAACAAABCBDADABADAAAAAAAAAEEABAAADADACA",
"BAACBAAAEADBEBFEAACEACDAABCBABAAAABCABBEDAAABAAABDAACBAEAABBCADD",
"AECAABBAABDAAAACAAAGAABEBABAAAACABABFAAABAABACADBAABBBCABDDBADAB",
"BBAAECCGAAEABAAAECBACAAAABCDABBBACAAABBAAAAAACAADBAACABAGAAAABAG"
};
